!!!!SEGMENT: pl-sa--l-1643--014_anonim--beata-es-virgo-maria.krn
!!!cenid: 16xx:1369
!!!COM: Anonim
!!!COM-rismid: pe30004985
!!!CDT:
!!!CNT:
!!!OTL: Beata es virgo Maria
!!!PDT:
!!!AGN: Sacred
!!!SMS-siglum: PL-SA
!!!SMS-shelfmark: L 1643
!!!SMS-shelfwork: 014 W
!!!SMS-variant:
!!!SMS-altvar:
!!!NIFC-rismid: 1001063206
!!!URL-scan: http://repozytorium.nifc.pl/skany/pl-sa-nut--l1643
!!!ONB-nifc: UWAGA: 8 ksiąg. Primi chori: 1mus Cantus (x), C 2dus (35-36), C 3tius (x), Bassus (x); Secondi chori: Primus Cantus (x), C 2dus (x), Altus (45-46), Bassus (44-46). UWAGA: metrum 2/2 i 3/2. Nie dodawać pustych linii, chyba że w rękopisie pojawiają się dodatkowe oznaczenia dotyczące pełnej obsady (a 4, a 8 itp.)
**kern	**text	**kern	**text	**kern	**text
*group2	*	*group2	*	*group1	*
*part3	*part3	*part2	*part2	*part1	*part1
*staff3	*staff3	*staff2	*staff2	*staff1	*staff1
*Iempty	*	*Ialto	*	*Iempty	*
*I"Baſsus 2di Chori	*	*I"Altus secondi Chori.	*	*I"Cantu 2dus Primi Chori	*
*I'[Coro 2 B]	*	*I'[Coro 2 A]	*	*I'[Coro 1 C 2]	*
*clefC4	*	*clefC3	*	*clefG2	*
*k[b-]	*	*k[b-]	*	*k[b-]	*
*F:	*	*F:	*	*F:	*
*M2/1	*	*M2/1	*	*M2/1	*
*met(C|)	*	*met(C|)	*	*met(C|)	*
=1-	=1-	=1-	=1-	=1-	=1-
0r	.	0r	.	1cc	Be-
.	.	.	.	2dd\	a-
.	.	.	.	2cc\	-ta
=2-	=2-	=2-	=2-	=2-	=2-
1c	Be-	1e	Be-	1cc	es
2A/	-a-	2f\	-a-	0r	.
2c\	-ta	2e\	-ta	.	.
=3-	=3-	=3-	=3-	=3-	=3-
1F,>	es	2f\	est	.	.
.	.	2f\	Be-	.	.
1.B-	be-	1.f	-a-	1dd	be-
=4-	=4-	=4-	=4-	=4-	=4-
.	.	.	.	2b-\	-a-
!	!	!LO:SIC:v:l:t=-ta	!	!	!
2F/	-a-	2f\	-tata	2cc\	-ta
0c	-ta	2g\	eſt	2cc\	es
*	*	*	*ij	*	*
.	.	2c/	Be-	2ff\	be-
!	!	!LO:SIC:v:s:t=custos g	!	!	!
!	!	!LO:LB:g=original	!	!	!
=5-	=5-	=5-	=5-	=5-	=5-
.	.	2g\	-a-	2cc\	-a-
.	.	2g\	-ta	2cc\	-ta
1F	es	1f	eſt	1cc	es,
*	*	*	*Xij	*	*
=6-	=6-	=6-	=6-	=6-	=6-
00r	.	00r	.	1a	vir-
.	.	.	.	2a/	-go
.	.	.	.	2g/	ma-
=7-	=7-	=7-	=7-	=7-	=7-
.	.	.	.	(<2a/	-ri-
.	.	.	.	2b-/)	.
.	.	.	.	2cc,>\	-a
.	.	.	.	2cc\	vir-
=8-	=8-	=8-	=8-	=8-	=8-
0r	.	0r	.	2cc\	-go
.	.	.	.	2dd\	.
.	.	.	.	2ee\	.
.	.	.	.	1ff\	ma-
!	!	!	!	!LO:SIC:v:t=custos ee	!
!	!	!	!	!LO:LB:g=original	!
=9-	=9-	=9-	=9-	=9-	=9-
1r	.	1r	.	.	.
.	.	.	.	2ee\	-ri-
1F	Vir-	1f	Vir-	1ff	-a
=10-	=10-	=10-	=10-	=10-	=10-
2B-\	-go	2f\	-go	0r	.
2B-\	ma-	2f\	ma-	.	.
1B-	-ri-	1f	-ri-	.	.
=11-	=11-	=11-	=11-	=11-	=11-
2F/	-a	2f,>\	-a	2r	.
*	*ij	*	*	*	*
2c\	Vir-	2e\	vir-	2ee\	quae
2G/	-go	2g\	-go	2dd\	cre-
2A/	ma-	1f\	ma-	2cc\	-di-
=12-	=12-	=12-	=12-	=12-	=12-
!	!	!	!	!LO:N:acc=#	!
0G	-ri-	.	.	2bn/	-di-
.	.	2c/	-ri-	1cc	.
.	.	1g	-a	.	.
!	!	!	!	!LO:N:acc=#	!
.	.	.	.	2bnX/	.
=13-	=13-	=13-	=13-	=13-	=13-
1c,>	-a	1e	.	1cc	-ſti
*	*Xij	*	*	*	*
2A/	que	2f\	que	00r	.
!LO:SIC:v:t=custos B-	!	!	!	!	!
!LO:PB:g=original	!	!	!	!	!
4B-\	cre-	4f\	cre-	.	.
4B-\	-di-	4f\	-di-	.	.
=14-	=14-	=14-	=14-	=14-	=14-
2B-\	-di-	2g\	-di-	.	.
!	!	!LO:SIC:v:s:t=custos e	!	!	!
2c\	-ſti	2e\	ſti	.	.
1.d	Do-	2f#X\	Do-	.	.
.	.	1g\	-mi-	.	.
=15-	=15-	=15-	=15-	=15-	=15-
.	.	.	.	.	.
2d\	-mi-	2f#X\	.	.	.
1G	-no	1g	-no	2r	.
.	.	.	.	2dd\	quae
=16-	=16-	=16-	=16-	=16-	=16-
0r	.	0r	.	4ee-X\	cre-
.	.	.	.	4ee-\	-di-
.	.	.	.	2ee-\	-di-
.	.	.	.	2dd\	-ſti
.	.	.	.	1dd\	do-
=17-	=17-	=17-	=17-	=17-	=17-
1r	.	1r	.	.	.
.	.	.	.	2dd\	mi-
2r	.	2r	.	1dd	-no
2G/	que	2g\	que	.	.
=18-	=18-	=18-	=18-	=18-	=18-
4c\	cre-	4g\	cre-	2r	.
4c\	-di-	4g\	-di-	.	.
2c\	-di-	2e\	-di-	2eeny\	que
1F	-ſti	1c	-ſti	4cc\	cre-
.	.	.	.	4cc\	-di-
.	.	.	.	2cc\	-di-
=19-	=19-	=19-	=19-	=19-	=19-
2r	.	2r	.	2dd,>\	-sti
*	*ij	*	*ij	*	*ij
2F/	que	2fny\	que	2cc\	que
4B-\	cre-	4f\	cre-	4dd\	cre-
4B-\	-di-	4f\	-di-	4dd\	-di-
2B-\	-di-	2d\	-di-	2dd\	-di-
=20-	=20-	=20-	=20-	=20-	=20-
1A,>	-ſti	1A,>	-ſti	1cc	-sti
*	*Xij	*	*Xij	*	*Xij
!	!	!	!	!LO:N:acc=#	!
!	!	!	!	!LO:TX:b:t=P:problem:# below	!
1.G	Do-	2d\	Do	2bn/	do-
!	!	!	!	!LO:SIC:v:t=custos cc	!
!	!	!	!	!LO:LB:g=original	!
.	.	4.e-X\	.	1cc\	.
.	.	8f\	.	.	.
!	!	!LO:SIC:v:t=custos g	!	!	!
!	!	!LO:LB:g=original	!	!	!
=21-	=21-	=21-	=21-	=21-	=21-
.	.	2g\	.	.	.
!	!	!	!	!LO:N:acc=#	!
2G/	-mi-	2g\	mi-	2bn/	-mi-
!	!	!LO:N:acc=#	!	!	!
1c,>	-no	1en	-no	1cc	-no
=22-	=22-	=22-	=22-	=22-	=22-
2.c\	Per-	2.e\	Per-	0r	.
!LO:SIC:v:t=custos A	!	!	!	!	!
!LO:LB:g=original	!	!	!	!	!
4A/	-fe-	4f\	.	.	.
2B-\	-cta	2d\	-fe-	.	.
2d\	ſunt	2f\	-cta	.	.
=23-	=23-	=23-	=23-	=23-	=23-
1c	in	2f\	Sunt	1r	.
.	.	2e\	in	.	.
1F	te	1f	te	2.cc\	per-
.	.	.	.	4dd\	-fe-
=24-	=24-	=24-	=24-	=24-	=24-
1r	.	1r	.	2b-y/	-cta
.	.	.	.	2b-/	ſunt
2r	.	2r	.	(<2b-/	in
2f\	quae	2f\	Per-	2a/)	.
=25-	=25-	=25-	=25-	=25-	=25-
2B-\	dic-	2d\	-fe-	1b-	te
4B-\	-ta	4d\	-cta	.	.
4B-\	ſunt	4d\	Sunt	.	.
2F/	ti-	2f\	in	2r	.
2F/	-bi	2f\	te	2cc\	que
=26-	=26-	=26-	=26-	=26-	=26-
2r	.	2r	.	2dd\	di-
*	*ij	*	*	*	*
2B-\	quae	2f\	qu	4dd\	-cta
.	.	.	.	4dd\	ſunt
2f\	dic-	2f\	di-	2cc\	ti-
!	!	!LO:SIC:v:t=custos f	!	!	!
!	!	!LO:LB:g=original	!	!	!
4f\	-ta	4f\	-cta	2cc\	-bi
4f\	ſunt	4f\	sunt	.	.
=27-	=27-	=27-	=27-	=27-	=27-
2B-\	ti-	2f\	ti-	2r	.
2B-\	-bi	2f\	-bi	2dd\	que
*	*Xij	*	*	*	*
00r	.	00r	.	2cc\	di-
.	.	.	.	4cc\	-cta
.	.	.	.	4cc\	ſunt
=28-	=28-	=28-	=28-	=28-	=28-
.	.	.	.	1dd	.
.	.	.	.	4dd\	ti-
.	.	.	.	4cc\	.
!	!	!	!	!LO:SIC:v:t=custos cc	!
!	!	!	!	!LO:PB:g=original	!
.	.	.	.	2.cc\	.
=29-	=29-	=29-	=29-	=29-	=29-
.	.	.	.	.	.
!	!	!	!	!LO:N:acc=#	!
.	.	.	.	8bn/L	.
.	.	.	.	8a/J	.
!	!	!	!	!LO:N:acc=#	!
.	.	.	.	2bnX/	.
2r	.	2r	.	2cc,>\	-bi
2c\	quae	2e\	que	2cc\	que
=30-	=30-	=30-	=30-	=30-	=30-
2.G/	di-	2.g\	di-	2.dd\	dic-
4G/	-cta	4g\	-cta	4dd\	-ta
!LO:SIC:v:t=custos B-	!	!	!	!	!
!LO:LB:g=original	!	!	!	!	!
1B-,>	ſunt	1g	Sunt	1dd	ſunt
=31-	=31-	=31-	=31-	=31-	=31-
0A	ti-	2g\	.	2cc#X\	ti-
.	.	2d\	.	1dd	.
.	.	1e	ti-	.	.
.	.	.	.	2cc#\	.
=32-	=32-	=32-	=32-	=32-	=32-
1d	-bi	1d	-bi	1dd,>	-bi
00r	.	00r	.	4dd\	ec-
.	.	.	.	4dd\	-ce
.	.	.	.	4dd\	ex-
.	.	.	.	4b-y/	-al-
=33-	=33-	=33-	=33-	=33-	=33-
.	.	.	.	4dd\	-ta-
.	.	.	.	4ccny\	-ta
.	.	.	.	2b-/	es
.	.	.	.	2r	.
.	.	.	.	4b-/	ſu-
.	.	.	.	4cc\	-per
=34-	=34-	=34-	=34-	=34-	=34-
.	.	.	.	2dd\	cho-
.	.	.	.	2b-/	-ros
00r	.	00r	.	4b-\	ſu-
.	.	.	.	4cc\	-per
!	!	!	!	!LO:SIC:v:t=custos dd	!
!	!	!	!	!LO:LB:g=original	!
.	.	.	.	2dd\	cho-
=35-	=35-	=35-	=35-	=35-	=35-
.	.	.	.	2b-/	-ros
.	.	.	.	2r	.
.	.	.	.	4dd\	ſu-
.	.	.	.	4ee\	-per
.	.	.	.	2ff\	cho-
=36-	=36-	=36-	=36-	=36-	=36-
.	.	.	.	2dd,>\	-ros
.	.	.	.	4dd\	ſu-
.	.	.	.	4ee\	-per
00r	.	00r	.	2ff\	cho-
.	.	.	.	2dd,>\	-ros
=37-	=37-	=37-	=37-	=37-	=37-
.	.	.	.	2cc#X\	-an-
.	.	.	.	2dd\	-ge-
.	.	.	.	(>2dd\	lo-
.	.	.	.	2cc#X\)	.
=38-	=38-	=38-	=38-	=38-	=38-
.	.	.	.	1dd	-rum
=39-	=39-	=39-	=39-	=39-	=39-
*M3/1	*	*M3/1	*	*M3/1	*
!LO:TX:t=P:problem:w źródle metrum 3/2	!	!LO:TX:t=P:problem:w źródle metrum 3/2	!	!LO:TX:t=P:problem:w źródle metrum 2/1	!
0B-	Gau-	0f	Gau-	00.r	.
1E-X	-dent	1g	-dent	.	.
=40-	=40-	=40-	=40-	=40-	=40-
1.F	An-	1.f	an-	.	.
!	!	!LO:SIC:v:t=custos f	!	!	!
!	!	!LO:PB:g=original	!	!	!
2F/	-ge-	2f\	-ge-	.	.
1B-	-li	1d	-li	.	.
=41-	=41-	=41-	=41-	=41-	=41-
00.r	.	00.r	.	0dd	Gau-
.	.	.	.	1ee-X	-dent
=42-	=42-	=42-	=42-	=42-	=42-
!	!	!	!	!LO:N:acc=#	!
.	.	.	.	1.ccn	an-
.	.	.	.	2cc\	-ge-
.	.	.	.	1dd,>	-li
=43-	=43-	=43-	=43-	=43-	=43-
*	*ij	*	*	*	*
!	!	!LO:SIC:v:l:t=gau-	!	!	!
0d	Gau-	0f#X	ga-	0dd	gau-
1G	-dent	1d	-dent	1dd	-dent
=44-	=44-	=44-	=44-	=44-	=44-
1.c	An-	1r	.	1.cc	an-
.	.	1g	Be-	.	.
2c\	-ge-	.	.	2cc\	-ge-
!	!	!	!	!LO:SIC:v:t=custos cc	!
!	!	!	!	!LO:LB:g=original	!
1c	-li	1e	-ne	1cc	-li
*	*Xij	*	*	*	*
=45-	=45-	=45-	=45-	=45-	=45-
1F	Lau-	1.c	Be-	1cc	lau-
0c	-dan-	.	.	0cc	-dan-
.	.	2c/	-ne-	.	.
.	.	2c/	-di-	.	.
.	.	2c/	-cunt	.	.
=46-	=46-	=46-	=46-	=46-	=46-
*M2/1	*	*M2/1	*	*M2/1	*
*met(C|)	*	*met(C|)	*	*met(C|)	*
1F	-tes	4.c/	do-	1cc	-teſ
.	.	8c/	-mi-	.	.
.	.	2fny\	num	.	.
0r	.	1r	.	4.dd\	be-
.	.	.	.	8dd\	-ne-
!	!	!	!	!LO:N:acc=#	!
.	.	.	.	4bn/	-di-
.	.	.	.	4b/	-cunt
=47-	=47-	=47-	=47-	=47-	=47-
!	!	!	!	!LO:N:acc=#	!
.	.	0r	.	4.een\	be-
.	.	.	.	8ee\	-ne-
.	.	.	.	4ee\	-di-
.	.	.	.	4cc\	-cunt
2r	.	.	.	4.a/	do-
.	.	.	.	8a/	-mi-
!LO:SIC:v:t=custos B-	!	!	!	!	!
!LO:LB:g=original	!	!	!	!	!
4.B-\	be-	.	.	2dd\	-num
8B-\	-ne-	.	.	.	.
=48-	=48-	=48-	=48-	=48-	=48-
4G/	-di-	4.g\	Be-	0r	.
4G,>/	-cunt	.	.	.	.
.	.	8g\	-ne	.	.
4.c\	be-	4e\	di-	.	.
.	.	4e\	-cunt	.	.
8c\	-ne-	.	.	.	.
4d\	-di-	2.f\	do-	.	.
4d,>\	-cunt	.	.	.	.
4.f\	Do-	.	.	.	.
.	.	4f\	-mi-	.	.
8f\	-mi-	.	.	.	.
!	!	!LO:SIC:v:t=custos d	!	!	!
!	!	!LO:LB:g=original	!	!	!
=49-	=49-	=49-	=49-	=49-	=49-
2B-\	-num	2d\	-num	4.b-y/	be-
.	.	.	.	8b-/	.
1r	.	1r	.	4g/	-ne-
.	.	.	.	4cc\	-di-
.	.	.	.	4cc\	-cunt
.	.	.	.	2b-\	do-
2r	.	2r	.	.	.
.	.	.	.	4a/	-mi-
=50-	=50-	=50-	=50-	=50-	=50-
0r	.	0r	.	2b-,>/	-num
.	.	.	.	2b-/	Al-
.	.	.	.	1.b-	-le-
=51-	=51-	=51-	=51-	=51-	=51-
2r	.	2r	.	.	.
2F/	Al-	2f\	A-	2a/	-lu-
!	!	!	!	!LO:SIC:v:t=custos b-	!
!	!	!	!	!LO:LB:g=original	!
4B-\	-le-	4d\	-le-	1b-	-ia
4c\	.	4e\	.	.	.
4d\	.	4f\	.	.	.
4B-\	.	4d\	.	.	.
=52-	=52-	=52-	=52-	=52-	=52-
2c\	-lu-	2e\	.	1r	.
2d\	.	2f#X\	-lu-	.	.
1G	-ia	1g	-ia	2r	.
.	.	.	.	2b-/	Al-
=53-	=53-	=53-	=53-	=53-	=53-
0r	.	0r	.	1dd	-le-
.	.	.	.	2cc#X\	-lu-
.	.	.	.	2dd\	-ia
=54-	=54-	=54-	=54-	=54-	=54-
*	*ij	*	*	*	*
2B-\	Al-	2fny\	A-	0r	.
1B-	-le-	2.f\	-le-	.	.
.	.	4e\	.	.	.
2B-\	lu-	4d\	.	.	.
.	.	4c\	.	.	.
=55-	=55-	=55-	=55-	=55-	=55-
2B-\	-ia	2d\	-lu-	2r	.
!LO:SIC:v:t=custos F	!	!	!	!	!
!LO:LB:g=original	!	!	!	!	!
1F	Al-	2f\	-ia	2ccny\	Al-
.	.	2c/	A-	2.cc\	-le-
2F/	le-	2.c/	-le-	.	.
.	.	.	.	4cc\	-lu-
=56-	=56-	=56-	=56-	=56-	=56-
0c	lu-	.	.	2cc\	ia
.	.	4d\	.	.	.
.	.	4e\	.	2cc\	Al-
.	.	4f\	.	.	.
.	.	2g\	.	2.cc\	-le-
.	.	2c/	lu-	.	.
.	.	.	.	4cc\	-lu-
!	!	!LO:SIC:v:t=custos c	!	!	!
!	!	!LO:LB:g=original	!	!	!
=57-	=57-	=57-	=57-	=57-	=57-
1F	ia	1c	-ia	1cc	-ia
*	*Xij	*	*	*	*
=58-	=58-	=58-	=58-	=58-	=58-
*M3/1	*	*	*	*M3/1	*
!LO:TX:t=P:problem:w źródle metrum 3/2	!	!LO:TX:t=P:problem:brak oznaczenia zmiany metrum	!	!LO:TX:t=P:problem:w źródle metrum 3/2	!
0B-	Gau-	0f	Gau-	00.r	.
1E-X,>	-dent	1g	-dent	.	.
=59-	=59-	=59-	=59-	=59-	=59-
1.F	An-	1.f	an-	.	.
2F/	-ge-	2f\	-ge-	.	.
1B-	-li	1d	-li	.	.
=60-	=60-	=60-	=60-	=60-	=60-
00.r	.	00.r	.	0dd	Gau-
.	.	.	.	1ee-X	-dent
=61-	=61-	=61-	=61-	=61-	=61-
.	.	.	.	1.cc	an-
.	.	.	.	2cc\	-ge-
.	.	.	.	1dd	-li
=62-	=62-	=62-	=62-	=62-	=62-
*	*ij	*	*	*	*
0d	Gau-	0f#X	gau-	0dd	gau-
1G	-dent	1d	-dent	1dd	-dent
=63-	=63-	=63-	=63-	=63-	=63-
1.c	An-	1r	.	1.cc	an-
.	.	1g	gau-	.	.
2c\	-ge-	.	.	2cc\	-ge-
!	!	!	!	!LO:SIC:v:t=custos cc	!
!	!	!	!	!LO:LB:g=original	!
1c	-li	1e	-dent	1cc,>	-li
*	*Xij	*	*	*	*
=64-	=64-	=64-	=64-	=64-	=64-
1F	lau-	1.c	an-	1cc	lau-
0c	-den-	.	.	0cc	-dan-
.	.	2c/	-ge-	.	.
.	.	2c/,>	-li	.	.
.	.	2c/	lau-	.	.
=65-	=65-	=65-	=65-	=65-	=65-
*M2/1	*	*M2/1	*	*M2/1	*
*met(C|)	*	*met(C|)	*	*met(C|)	*
1F	-tes	2c/	-dan-	1cc	tes
.	.	2fny\	-tes	.	.
!LO:SIC:v:t=custos B-	!	!	!	!	!
!LO:LB:g=original	!	!	!	!	!
0r	.	1r	.	4.dd\	bene
.	.	.	.	8dd\	.
!	!	!	!	!LO:N:acc=#	!
.	.	.	.	4bn/	di-
.	.	.	.	4b,>/	-cunt;
=66-	=66-	=66-	=66-	=66-	=66-
!	!	!	!	!LO:N:acc=#	!
.	.	0r	.	4.een\	bene
.	.	.	.	8ee\	.
.	.	.	.	4ee\	di-
.	.	.	.	4cc\	-cunt;
2r	.	.	.	4.a/	domi-
.	.	.	.	8a/	.
4.B-\	be-	.	.	2dd,>\	-num
8B-\	-ne-	.	.	.	.
=67-	=67-	=67-	=67-	=67-	=67-
!LO:SIC:v:t=4G	!	!	!	!	!
4F/	-di-	4.g\	Be-	0r	.
4G,>/	-cunt	.	.	.	.
.	.	8g\	-ne-	.	.
4.c\	be-	4e\	-di-	.	.
.	.	4e\	-cunt	.	.
8c\	-ne-	.	.	.	.
!	!	!LO:SIC:v:t=custos f	!	!	!
!	!	!LO:LB:g=original	!	!	!
4d\	-di-	2.f\	Do-	.	.
!LO:TX:t=P:problem:ubytek	!	!	!	!	!
4d\	-cunt	.	.	.	.
4.f\	Do-	.	.	.	.
.	.	4f\	-mi-	.	.
!LO:N:vis=4	!	!	!	!	!
8f\	-mi-	.	.	.	.
=68-	=68-	=68-	=68-	=68-	=68-
2B-\	-num	2d\	-num	4.b-y/	be-
!	!	!	!	!LO:TX:t=P:problem:ubytki	!
.	.	.	.	8b-/	-ne-
1r	.	1r	.	4g/	-[di-
.	.	.	.	4cc,>\	-cunt]
.	.	.	.	4cc\	do-
.	.	.	.	2b-/	.
2r	.	2r	.	.	.
.	.	.	.	4a/	-mi-
=69-	=69-	=69-	=69-	=69-	=69-
0r	.	0r	.	2b-,>/	-num
.	.	.	.	2b-/	Al-
.	.	.	.	1.b-	-le-
=70-	=70-	=70-	=70-	=70-	=70-
2r	.	2r	.	.	.
2F/	Al-	2f\	Al-	2a/	-lu-
4B-\	-le-	4d\	-le-	1b-	-ia
4c\	.	4e\	.	.	.
4d\	.	4f\	.	.	.
4B-\	.	4d\	.	.	.
!	!	!	!	!LO:SIC:v:t=custos b-	!
!	!	!	!	!LO:LB:g=original	!
=71-	=71-	=71-	=71-	=71-	=71-
!	!	!	!	!LO:TX:t=P:problem:poprawka - pauza brevis przeprawiona na semibrevis	!
2c\	-lu-	2e\	.	1r	.
2d\	.	2f#X\	-lu-	.	.
1G	-ia	1g	-ia	2r	.
.	.	.	.	2b-/	Al-
=72-	=72-	=72-	=72-	=72-	=72-
0r	.	0r	.	1dd	-le-
.	.	.	.	2cc#X\	-lu-
.	.	.	.	2dd\	-ia,
=73-	=73-	=73-	=73-	=73-	=73-
2B-\	Al-	2fny\	Al-	0r	.
1B-	-le-	2.f\	-le-	.	.
.	.	4e\	.	.	.
2B-\	-lu-	4d\	.	.	.
.	.	4c/	.	.	.
=74-	=74-	=74-	=74-	=74-	=74-
!	!	!	!	!LO:TX:t=P:problem:pauza poprawiona na minima	!
2B-\	-ia	2d\	.	2r	.
!LO:SIC:v:t=custos F	!	!	!	!	!
!LO:PB:g=original	!	!	!	!	!
1F	Al-	2f\	-lu-	2ccny\	Al-
.	.	2c/	-ia	2.cc\	-le-
2F/	-le-	2.c/	Al-	.	.
.	.	.	.	4cc\	lu-
=75-	=75-	=75-	=75-	=75-	=75-
0c	-lu-	.	.	2cc,>\	-ia,
.	.	4d\	-le-	.	.
.	.	4e\	.	2cc\	Al-
.	.	4f\	.	.	.
!	!	!LO:SIC:v:t=custos g	!	!	!
!	!	!LO:LB:g=original	!	!	!
.	.	2g\	.	2.cc\	-le-
.	.	2c/	-lu-	.	.
.	.	.	.	4cc\	-lu-
=76-	=76-	=76-	=76-	=76-	=76-
0F;;	-ia	0c;;	-ia;	0cc;;	-ia;
=-	=-	=-	=-	=-	=-
*-	*-	*-	*-	*-	*-
!!!system-decoration: [(g1)],[(g2)]
!!!ENC: Marta Opryszak
!!!END: 2021-10-25
!!!EED: Jędrzej Mróz
!!!ESR: 2021-11-02
!!!RDF**kern: > = above
!!!RDF**kern: < = below
